assets/Pregnant person/Medium-Dark/Flat/pregnant_person_flat_medium-dark.svg

<svg width="32" height="32" viewBox="0 0 32 32" fill="none" xmlns="http://www.w3.org/2000/svg">
<path d="M16.7034 12.7953C14.4993 13.4706 12.86 15.9736 12.86 18.3354V19.1317C12.86 19.3837 12.6717 19.5942 12.4245 19.6432C9.55567 20.2125 7.39319 22.7409 7.39319 25.7734V26.9882C7.39319 28.6449 8.73792 29.9882 10.3968 29.9882H12.86V29.9999H20.5602C21.5278 29.9999 22.2434 29.2167 22.2434 28.2499V16.0165C22.2434 14.7211 21.3982 13.7787 20.206 13.5297C20.0522 13.4975 19.8974 13.4667 19.7441 13.4311C19.4808 13.37 19.2219 13.2949 18.9805 13.1747L18.9218 13.1454C18.2274 12.7992 17.4453 12.5678 16.7034 12.7953Z" fill="#FF6723"/>
<path d="M18.3868 20.01C17.9973 21.2725 17.2883 22.7555 15.9902 23.8778C14.3925 25.2705 12.3255 25.9519 11.0873 26.2625C10.8077 26.3327 10.5181 26.2525 10.3184 26.0521L9.7792 25.511C9.52956 25.2605 9.11017 25.2605 8.86053 25.511C8.61089 25.7615 8.61089 26.1824 8.86053 26.4329L9.1601 26.7335H7.90191C7.56241 26.7335 7.26284 26.994 7.23288 27.3347C7.21291 27.6653 7.42261 27.9459 7.72217 28.016C7.58238 28.1363 7.49251 28.3166 7.49251 28.517C7.49251 28.8076 7.68223 29.0581 7.94186 29.1383C7.90191 29.2485 7.89193 29.3788 7.92189 29.509C7.99178 29.7996 8.27138 30 8.58093 30H9.61943C9.66936 30 10.2286 30 10.4682 29.9599C10.6479 29.9299 15.0017 29.3387 18.2669 26.503C20.5337 24.5291 21.5422 21.9339 21.9816 20H18.3868V20.01Z" fill="#966661"/>
<path d="M20.4751 15.6201C19.5005 15.6201 18.7087 16.3901 18.7087 17.3501C18.7087 17.3701 18.7884 18.5601 18.3315 20.0201H21.9815C22.3267 18.5401 22.2314 17.4601 22.2314 17.3601C22.2416 16.4101 21.4497 15.6201 20.4751 15.6201Z" fill="#F24827"/>
<path d="M23.0468 4.70982C22.804 4.28125 22.4199 3.98214 21.9917 3.83482C21.5238 3.67411 21.1221 3.36607 20.866 2.94196C20.5261 2.37946 19.9125 2 19.2106 2C18.9413 2 18.6853 2.05804 18.4513 2.15625C18.1335 2.29464 17.7759 2.29464 17.458 2.15625C17.2197 2.05804 16.9636 2 16.6943 2C16.0013 2 15.3965 2.36607 15.0522 2.91518C14.7829 3.34821 14.3767 3.66964 13.9 3.83929C13.4541 3.99554 13.0612 4.31696 12.8184 4.77679C12.4697 5.44196 12.5403 6.22768 12.9376 6.8125C13.0833 7.02679 13.1628 7.28125 13.1628 7.54018V8.04711C13.3299 7.92938 13.7366 9.81787 13.7366 9.81787C13.7366 9.81787 19.9593 8.54327 22.2036 9.82409C22.2036 9.82409 22.5777 7.93469 22.7334 8.04314V7.54018C22.7334 7.28125 22.8128 7.02679 22.9585 6.8125C23.3779 6.20982 23.4353 5.39286 23.0468 4.70982Z" fill="#2D242D"/>
<path d="M13.9048 10.4043C13.6257 10.3952 13.3644 10.3006 13.1519 10.1475V10.9224C13.1519 11.6657 13.5947 12.328 14.2679 12.6028C14.1262 12.301 14.0288 11.9721 13.9801 11.6207L13.9048 10.4043Z" fill="#2D242D"/>
<path d="M21.9971 10.4043C22.2761 10.3952 22.5374 10.3006 22.75 10.1475V10.9224C22.75 11.6657 22.3071 12.328 21.6339 12.6028C21.7757 12.301 21.8731 11.9721 21.9218 11.6207L21.9971 10.4043Z" fill="#2D242D"/>
<path d="M15.2723 9.13665C15.2723 9.87632 14.6727 10.4759 13.933 10.4759C13.1934 10.4759 12.5938 9.87632 12.5938 9.13665C12.5938 8.39698 13.1934 7.79736 13.933 7.79736C14.6727 7.79736 15.2723 8.39698 15.2723 9.13665Z" fill="#8B5C56"/>
<path d="M23.308 9.13665C23.308 9.87632 22.7084 10.4759 21.9687 10.4759C21.2291 10.4759 20.6295 9.87632 20.6295 9.13665C20.6295 8.39698 21.2291 7.79736 21.9687 7.79736C22.7084 7.79736 23.308 8.39698 23.308 9.13665Z" fill="#8B5C56"/>
<path d="M13.6838 7.82658L13.935 11.665C14.1491 13.29 15.532 14.4998 17.1691 14.4998H18.7394C20.3765 14.4998 21.7594 13.29 21.9735 11.665L22.214 7.82583C22.2105 7.82519 22.2071 7.82457 22.2036 7.82395L22.2433 6.96861C22.2345 6.33022 21.7313 5.80343 21.0956 5.77665H19.9302C19.1356 5.77665 18.416 5.3079 18.0893 4.57575C18.0054 4.36593 17.8024 4.22754 17.5772 4.22754H16.5178C14.9815 4.22754 13.7366 5.48647 13.7366 7.04004V7.81773C13.7189 7.82033 13.7013 7.82329 13.6838 7.82658Z" fill="#966661"/>
<path d="M17.9495 12.0375C17.496 12.0375 17.086 11.8831 16.7813 11.7217C16.6722 11.6639 16.5561 11.8237 16.6406 11.9242C16.9529 12.2956 17.2812 12.7139 17.9495 12.7139C18.6177 12.7139 18.9634 12.344 19.2641 11.9801C19.3485 11.8779 19.2104 11.7057 19.0996 11.7619C18.8083 11.9096 18.4173 12.0375 17.9495 12.0375Z" fill="#990838"/>
<path d="M17.6526 8.94288L17.2352 10.4269C17.1451 10.729 17.3579 11.04 17.6526 11.04H18.2827C18.5774 11.04 18.7902 10.729 18.7001 10.4269L18.2745 8.94288C18.1763 8.61409 17.7508 8.61409 17.6526 8.94288Z" fill="#75443E"/>
<path d="M16.7928 9.366C17.0235 9.366 17.212 9.16691 17.1244 8.95349C16.9335 8.48827 16.476 8.16064 15.9419 8.16064C15.4079 8.16064 14.9504 8.48827 14.7595 8.95349C14.6719 9.16691 14.8604 9.366 15.0911 9.366H16.7928Z" fill="white"/>
<path d="M19.1415 9.366C18.9108 9.366 18.7222 9.16691 18.8098 8.95349C19.0008 8.48827 19.4583 8.16064 19.9923 8.16064C20.5263 8.16064 20.9838 8.48827 21.1748 8.95349C21.2624 9.16691 21.0738 9.366 20.8431 9.366H19.1415Z" fill="white"/>
<path d="M15.3393 9.16539C15.3393 9.23476 15.3481 9.30207 15.3646 9.36628H16.7928C16.8399 9.36628 16.8852 9.358 16.9267 9.343C16.9396 9.28586 16.9464 9.22642 16.9464 9.16539C16.9464 8.72159 16.5867 8.36182 16.1429 8.36182C15.6991 8.36182 15.3393 8.72159 15.3393 9.16539Z" fill="#7D4533"/>
<path d="M20.595 9.16539C20.595 9.23476 20.5862 9.30207 20.5697 9.36628H19.1415C19.0944 9.36628 19.0491 9.35799 19.0075 9.34298C18.9946 9.28585 18.9878 9.22641 18.9878 9.16539C18.9878 8.72159 19.3476 8.36182 19.7914 8.36182C20.2352 8.36182 20.595 8.72159 20.595 9.16539Z" fill="#7D4533"/>
<path d="M15.6607 9.17551C15.6607 9.23799 15.6726 9.29775 15.6942 9.35275H16.6317C16.6533 9.29775 16.6652 9.23799 16.6652 9.17551C16.6652 8.90356 16.4403 8.68311 16.1629 8.68311C15.8856 8.68311 15.6607 8.90356 15.6607 9.17551Z" fill="black"/>
<path d="M20.2735 9.18534C20.2735 9.24907 20.2617 9.31002 20.24 9.36611H19.3026C19.2809 9.31002 19.2691 9.24907 19.2691 9.18534C19.2691 8.90796 19.4939 8.68311 19.7713 8.68311C20.0487 8.68311 20.2735 8.90796 20.2735 9.18534Z" fill="black"/>
<path d="M15.942 8.96429C16.0529 8.96429 16.1429 8.87434 16.1429 8.76339C16.1429 8.65244 16.0529 8.5625 15.942 8.5625C15.831 8.5625 15.7411 8.65244 15.7411 8.76339C15.7411 8.87434 15.831 8.96429 15.942 8.96429Z" fill="white"/>
<path d="M19.9923 8.96429C19.8814 8.96429 19.7914 8.87434 19.7914 8.76339C19.7914 8.65244 19.8814 8.5625 19.9923 8.5625C20.1033 8.5625 20.1932 8.65244 20.1932 8.76339C20.1932 8.87434 20.1033 8.96429 19.9923 8.96429Z" fill="white"/>
<path d="M15.3114 7.83825C15.3922 7.75864 15.5485 7.66275 15.7641 7.58674C15.976 7.51201 16.2304 7.46191 16.4965 7.46191C16.6179 7.46192 16.7162 7.36355 16.7162 7.24219C16.7162 7.12084 16.6179 7.02246 16.4965 7.02246C16.1771 7.02245 15.8735 7.08221 15.618 7.17229C15.3661 7.26109 15.1454 7.38495 15.0031 7.5251C14.9166 7.61023 14.9155 7.74935 15.0006 7.83583C15.0858 7.9223 15.2249 7.92339 15.3114 7.83825Z" fill="#372128"/>
<path d="M20.695 7.83825C20.6142 7.75864 20.4579 7.66275 20.2423 7.58674C20.0304 7.51201 19.776 7.46191 19.5099 7.46191C19.3886 7.46192 19.2902 7.36355 19.2902 7.24219C19.2902 7.12084 19.3885 7.02246 19.5099 7.02246C19.8293 7.02245 20.133 7.08221 20.3885 7.17229C20.6403 7.26109 20.861 7.38495 21.0033 7.5251C21.0898 7.61023 21.0909 7.74935 21.0058 7.83583C20.9206 7.9223 20.7815 7.92339 20.695 7.83825Z" fill="#372128"/>
</svg>

<svg xmlns="http://www.w3.org/2000/svg" width="32" height="32" fill="none"><path fill="#FF6723" d="M16.703 12.795c-2.204.676-3.843 3.179-3.843 5.54v.797a.53.53 0 0 1-.435.511 6.254 6.254 0 0 0-5.032 6.13v1.215c0 1.657 1.345 3 3.004 3h2.463V30h7.7c.968 0 1.683-.783 1.683-1.75V16.017c0-1.296-.845-2.238-2.037-2.487-.154-.032-.309-.063-.462-.099a3.445 3.445 0 0 1-.764-.256l-.058-.03c-.695-.346-1.477-.577-2.219-.35Z"/><path fill="#966661" d="M18.387 20.01c-.39 1.262-1.099 2.745-2.397 3.868-1.598 1.392-3.665 2.074-4.903 2.384a.804.804 0 0 1-.769-.21l-.539-.541a.655.655 0 0 0-.918 0 .661.661 0 0 0 0 .922l.3.3H7.9c-.339 0-.638.261-.668.602-.02.33.19.61.49.681a.66.66 0 0 0-.23.501c0 .29.19.541.449.621a.66.66 0 0 0-.02.371c.07.29.35.491.659.491h1.038c.05 0 .61 0 .85-.04.179-.03 4.533-.621 7.798-3.457 2.267-1.974 3.275-4.57 3.715-6.503h-3.595v.01Z"/><path fill="#F24827" d="M20.475 15.62c-.975 0-1.766.77-1.766 1.73 0 .02.08 1.21-.378 2.67h3.65c.346-1.48.25-2.56.25-2.66.01-.95-.781-1.74-1.756-1.74Z"/><path fill="#2D242D" d="M23.047 4.71a1.932 1.932 0 0 0-1.055-.875 2.1 2.1 0 0 1-1.126-.893A1.935 1.935 0 0 0 19.211 2c-.27 0-.526.058-.76.156a1.24 1.24 0 0 1-.993 0 1.935 1.935 0 0 0-2.406.759c-.27.433-.675.755-1.152.924a1.951 1.951 0 0 0-1.082.938 1.99 1.99 0 0 0 .12 2.035c.145.215.225.47.225.728v.507c.167-.118.574 1.77.574 1.77s6.222-1.274 8.467.007c0 0 .374-1.89.53-1.78V7.54c0-.259.079-.513.224-.728.42-.602.477-1.42.089-2.102ZM13.905 10.404c-.28-.009-.54-.103-.753-.256v.774c0 .744.443 1.406 1.116 1.68a3.402 3.402 0 0 1-.288-.981l-.075-1.217ZM21.997 10.404c.28-.009.54-.103.753-.256v.774c0 .744-.443 1.406-1.116 1.68.142-.301.24-.63.288-.981l.075-1.217Z"/><path fill="#8B5C56" d="M15.272 9.137a1.34 1.34 0 1 1-2.678 0 1.34 1.34 0 0 1 2.678 0ZM23.308 9.137a1.34 1.34 0 1 1-2.678 0 1.34 1.34 0 0 1 2.678 0Z"/><path fill="#966661" d="m13.684 7.827.251 3.838a3.26 3.26 0 0 0 3.234 2.835h1.57a3.26 3.26 0 0 0 3.235-2.835l.24-3.84-.01-.001.04-.855a1.206 1.206 0 0 0-1.148-1.192H19.93a2.016 2.016 0 0 1-1.84-1.201.553.553 0 0 0-.513-.348h-1.06c-1.535 0-2.78 1.258-2.78 2.812v.778a1.339 1.339 0 0 0-.053.009Z"/><path fill="#990838" d="M17.95 12.037c-.454 0-.864-.154-1.169-.315-.109-.058-.225.102-.14.202.312.372.64.79 1.309.79.668 0 1.013-.37 1.314-.734.085-.102-.054-.274-.164-.218a2.54 2.54 0 0 1-1.15.275Z"/><path fill="#75443E" d="m17.653 8.943-.418 1.484c-.09.302.123.613.418.613h.63c.294 0 .507-.311.417-.613l-.425-1.484a.32.32 0 0 0-.622 0Z"/><path fill="#fff" d="M16.793 9.366c.23 0 .419-.2.331-.413a1.278 1.278 0 0 0-2.364 0c-.088.214.1.413.331.413h1.702ZM19.142 9.366c-.231 0-.42-.2-.332-.413a1.278 1.278 0 0 1 2.365 0c.087.214-.101.413-.332.413h-1.701Z"/><path fill="#7D4533" d="M15.34 9.165c0 .07.008.137.025.201h1.428a.394.394 0 0 0 .134-.023.806.806 0 0 0-.784-.981.804.804 0 0 0-.804.803ZM20.595 9.165c0 .07-.009.137-.025.201h-1.428a.395.395 0 0 1-.134-.023.806.806 0 0 1 .783-.981c.444 0 .804.36.804.803Z"/><path fill="#000" d="M15.66 9.176c0 .062.013.122.034.177h.938a.484.484 0 0 0 .033-.177.497.497 0 0 0-.502-.493.497.497 0 0 0-.502.493ZM20.273 9.185a.5.5 0 0 1-.033.181h-.937a.502.502 0 1 1 .97-.18Z"/><path fill="#fff" d="M15.942 8.964a.2.2 0 1 0 0-.402.2.2 0 0 0 0 .402ZM19.992 8.964a.2.2 0 1 1 0-.402.2.2 0 0 1 0 .402Z"/><path fill="#372128" d="M15.311 7.838c.081-.08.238-.175.453-.251.212-.075.466-.125.733-.125a.22.22 0 1 0 0-.44c-.32 0-.623.06-.879.15-.252.09-.473.213-.615.353a.22.22 0 1 0 .308.313ZM20.695 7.838a1.28 1.28 0 0 0-.453-.251 2.235 2.235 0 0 0-.732-.125.22.22 0 0 1 0-.44c.32 0 .623.06.878.15.252.09.473.213.615.353a.22.22 0 1 1-.308.313Z"/></svg>
